;FLAVOR:UltiGCode
;TIME:817
;MATERIAL:2135
;MATERIAL2:0
;NOZZLE_DIAMETER:0.4
;MINX:76.964
;MINY:97.975
;MINZ:0.27
;MAXX:146.057
;MAXY:125.025
;MAXZ:2.77
;Generated with Cura_SteamEngine 4.8.0
M82 ;absolute extrusion mode
G0 F3000 Y50 ;avoid prime blob
G92 E0
G92 E0
G10
;LAYER_COUNT:11
;LAYER:0
M107
G0 F4500 X79.761 Y105.896 Z0.27
;TYPE:SKIRT
G11
G1 F1800 X80.201 Y105.591 E0.05059
G1 X80.99 Y105.078 E0.13953
G1 X83.33 Y103.514 E0.4055
G1 X85.503 Y101.971 E0.65736
G1 X88.054 Y100.051 E0.95908
G1 X88.496 Y99.735 E1.01042
G1 X89.01 Y99.389 E1.06897
G1 X89.506 Y99.089 E1.12375
G1 X89.993 Y98.817 E1.17647
G1 X90.574 Y98.528 E1.23779
G1 X91.06 Y98.308 E1.2882
G1 X91.559 Y98.127 E1.33836
G1 X92.079 Y98.023 E1.38848
G1 X92.434 Y97.998 E1.42211
G1 X93.568 Y97.975 E1.52929
G1 X137.875 Y97.975 E5.7163
G1 X138.684 Y97.988 E5.79276
G1 X139.421 Y98.042 E5.8626
G1 X140.062 Y98.148 E5.92399
G1 X140.81 Y98.343 E5.99704
G1 X141.463 Y98.584 E6.06282
G1 X142.116 Y98.903 E6.1315
G1 X142.76 Y99.291 E6.20255
G1 X143.294 Y99.691 E6.2656
G1 X143.832 Y100.182 E6.33443
G1 X144.339 Y100.735 E6.40533
G1 X144.709 Y101.226 E6.46343
G1 X145.135 Y101.928 E6.54102
G1 X145.439 Y102.545 E6.60602
G1 X145.672 Y103.165 E6.66861
G1 X145.872 Y103.922 E6.7426
G1 X145.992 Y104.62 E6.80953
G1 X146.041 Y105.296 E6.87358
G1 X146.056 Y105.808 E6.92199
G1 X146.057 Y116.843 E7.9648
G1 X146.044 Y117.641 E8.04022
G1 X145.993 Y118.37 E8.10928
G1 X145.881 Y119.041 E8.17356
G1 X145.689 Y119.773 E8.24508
G1 X145.517 Y120.256 E8.29353
G1 X145.283 Y120.795 E8.34906
G1 X144.969 Y121.37 E8.41097
G1 X144.544 Y121.995 E8.48239
G1 X144.079 Y122.564 E8.55183
G1 X143.611 Y123.035 E8.61458
G1 X143.068 Y123.483 E8.6811
G1 X142.414 Y123.931 E8.75602
G1 X141.851 Y124.238 E8.81662
G1 X141.161 Y124.532 E8.88749
G1 X140.451 Y124.762 E8.95802
G1 X139.811 Y124.902 E9.01993
G1 X139.114 Y124.986 E9.08627
G1 X138.613 Y125.014 E9.13369
G1 X138.135 Y125.025 E9.17887
G1 X93.187 Y125.025 E13.42646
G1 X92.512 Y125.015 E13.49026
G1 X91.983 Y124.967 E13.54045
G1 X91.468 Y124.84 E13.59058
G1 X91.139 Y124.714 E13.62387
G1 X90.483 Y124.424 E13.69165
G1 X89.962 Y124.166 E13.74659
G1 X89.544 Y123.931 E13.7919
G1 X89.11 Y123.674 E13.83957
G1 X88.639 Y123.366 E13.89275
G1 X88.544 Y123.301 E13.90363
G1 X88.134 Y123.008 E13.95125
G1 X87.191 Y122.295 E14.06297
G1 X86.802 Y121.992 E14.10957
G1 X84.599 Y120.368 E14.3682
G1 X82.337 Y118.8 E14.6283
G1 X80.512 Y117.6 E14.8347
G1 X79.963 Y117.247 E14.89638
G1 X79.54 Y116.929 E14.94639
G1 X79.144 Y116.581 E14.99621
G1 X78.773 Y116.201 E15.04639
G1 X78.451 Y115.818 E15.09368
G1 X78.139 Y115.384 E15.14419
G1 X77.841 Y114.895 E15.19831
G1 X77.594 Y114.41 E15.24974
G1 X77.401 Y113.944 E15.2974
G1 X77.239 Y113.453 E15.34626
G1 X77.115 Y112.959 E15.3944
G1 X77.025 Y112.436 E15.44455
G1 X76.974 Y111.902 E15.49524
G1 X76.964 Y111.366 E15.5459
G1 X76.994 Y110.841 E15.59559
G1 X77.064 Y110.314 E15.64583
G1 X77.175 Y109.788 E15.69663
G1 X77.321 Y109.285 E15.74613
G1 X77.551 Y108.678 E15.80747
G1 X77.974 Y107.871 E15.89357
G1 X78.267 Y107.429 E15.94369
G1 X78.614 Y106.983 E15.99709
G1 X78.966 Y106.595 E16.04659
G1 X79.339 Y106.24 E16.09525
G1 X79.761 Y105.896 E16.1467
G0 F4500 X79.96 Y106.184
G1 F1800 X80.4 Y105.879 E16.1973
G1 X81.185 Y105.369 E16.28576
G1 X83.5 Y103.822 E16.54888
G1 X85.723 Y102.244 E16.8065
G1 X88.264 Y100.331 E17.10707
G1 X88.771 Y99.971 E17.16583
G1 X89.205 Y99.68 E17.21521
G1 X89.685 Y99.39 E17.2682
G1 X90.163 Y99.123 E17.31994
G1 X90.727 Y98.843 E17.37945
G1 X91.204 Y98.627 E17.42893
G1 X91.678 Y98.457 E17.47652
G1 X92.173 Y98.365 E17.52409
G1 X92.441 Y98.348 E17.54947
G1 X93.568 Y98.325 E17.65599
G1 X137.87 Y98.325 E21.84253
G1 X138.576 Y98.335 E21.90926
G1 X139.39 Y98.39 E21.98636
G1 X139.994 Y98.491 E22.04423
G1 X140.694 Y98.673 E22.11258
G1 X141.335 Y98.91 E22.17716
G1 X141.953 Y99.213 E22.2422
G1 X142.554 Y99.574 E22.30845
G1 X143.08 Y99.967 E22.3705
G1 X143.588 Y100.433 E22.43565
G1 X144.061 Y100.948 E22.50173
G1 X144.428 Y101.434 E22.55928
G1 X144.83 Y102.099 E22.63271
G1 X145.113 Y102.674 E22.69327
G1 X145.342 Y103.284 E22.75484
G1 X145.531 Y104.001 E22.82492
G1 X145.643 Y104.65 E22.88715
G1 X145.692 Y105.316 E22.95026
G1 X145.706 Y105.817 E22.99762
G1 X145.707 Y116.838 E24.03911
G1 X145.697 Y117.538 E24.10526
G1 X145.644 Y118.34 E24.18122
G1 X145.537 Y118.972 E24.24179
G1 X145.359 Y119.657 E24.30867
G1 X145.191 Y120.128 E24.35593
G1 X144.973 Y120.633 E24.40791
G1 X144.665 Y121.198 E24.46872
G1 X144.261 Y121.79 E24.53645
G1 X143.828 Y122.321 E24.6012
G1 X143.367 Y122.784 E24.66294
G1 X142.854 Y123.206 E24.72571
G1 X142.242 Y123.626 E24.79586
G1 X141.687 Y123.929 E24.85561
G1 X141.033 Y124.207 E24.92277
G1 X140.373 Y124.421 E24.98833
G1 X139.741 Y124.559 E25.04947
G1 X139.084 Y124.637 E25.11199
G1 X138.217 Y124.674 E25.19399
G1 X93.192 Y124.675 E29.44886
G1 X92.517 Y124.665 E29.51265
G1 X92.016 Y124.617 E29.56021
G1 X91.528 Y124.491 E29.60784
G1 X91.28 Y124.394 E29.63301
G1 X90.624 Y124.104 E29.70079
G1 X90.133 Y123.86 E29.7526
G1 X89.722 Y123.63 E29.79711
G1 X89.288 Y123.373 E29.84477
G1 X88.833 Y123.075 E29.89617
G1 X88.338 Y122.723 E29.95357
G1 X87.406 Y122.019 E30.06394
G1 X87.015 Y121.714 E30.11081
G1 X84.78 Y120.067 E30.37317
G1 X82.544 Y118.516 E30.63033
G1 X80.733 Y117.326 E30.83511
G1 X80.152 Y116.953 E30.90035
G1 X79.771 Y116.666 E30.94543
G1 X79.375 Y116.318 E30.99525
G1 X79.041 Y115.976 E31.04042
G1 X78.719 Y115.593 E31.08771
G1 X78.438 Y115.202 E31.13321
G1 X78.14 Y114.713 E31.18732
G1 X77.918 Y114.276 E31.23364
G1 X77.725 Y113.81 E31.28131
G1 X77.579 Y113.368 E31.3253
G1 X77.455 Y112.874 E31.37343
G1 X77.373 Y112.403 E31.41861
G1 X77.322 Y111.869 E31.4693
G1 X77.313 Y111.386 E31.51495
G1 X77.343 Y110.861 E31.56464
G1 X77.406 Y110.386 E31.60992
G1 X77.517 Y109.86 E31.66073
G1 X77.82 Y108.949 E31.75145
G1 X78.042 Y108.465 E31.80177
G1 X78.543 Y107.644 E31.89266
G1 X78.89 Y107.198 E31.94606
G1 X79.207 Y106.848 E31.99069
G1 X79.58 Y106.493 E32.03935
G1 X79.96 Y106.184 E32.08563
G10
;MESH:name tag disney.stl
G0 F4500 X81.461 Y108.142
G0 X82.149 Y109.172
G0 X81.645 Y110.992
G0 X81.742 Y111.013
;TYPE:WALL-INNER
G11
G1 F1800 X81.692 Y111.522 E32.13396
G1 X81.749 Y112.01 E32.18039
G1 X81.912 Y112.475 E32.22696
G1 X82.168 Y112.894 E32.27336
G1 X82.511 Y113.249 E32.32001
G1 X82.923 Y113.522 E32.36671
G1 X83.381 Y113.698 E32.41308
G1 X83.867 Y113.774 E32.45956
G1 X84.358 Y113.743 E32.50606
G1 X84.832 Y113.606 E32.55268
G1 X85.264 Y113.371 E32.59916
G1 X85.635 Y113.05 E32.64552
G1 X85.93 Y112.655 E32.69211
G1 X86.132 Y112.206 E32.73863
G1 X86.233 Y111.725 E32.78508
G1 X86.23 Y111.233 E32.83157
G1 X86.119 Y110.752 E32.87822
G1 X85.907 Y110.309 E32.92463
G1 X85.606 Y109.919 E32.97119
G1 X85.227 Y109.604 E33.01776
G1 X84.791 Y109.377 E33.06421
G1 X84.316 Y109.25 E33.11067
G1 X83.823 Y109.228 E33.15731
G1 X83.337 Y109.313 E33.20393
G1 X82.883 Y109.499 E33.2503
G1 X82.478 Y109.779 E33.29683
G1 X82.143 Y110.14 E33.34337
G1 X81.895 Y110.562 E33.38962
G1 X81.742 Y111.013 E33.43463
G0 F4500 X81.645 Y110.992
G0 X81.711 Y112.018
G0 X82.137 Y112.918
G0 X82.905 Y113.557
G0 X83.866 Y113.813
G0 X86.533 Y113.241
G0 X86.501 Y113.335
G1 F1800 X86.303 Y113.476 E33.4576
G1 X85.507 Y114.044 E33.55001
G1 X85.106 Y114.247 E33.59248
G1 X84.68 Y114.387 E33.63486
G1 X84.237 Y114.461 E33.6773
G1 X83.789 Y114.469 E33.71964
G1 X83.348 Y114.407 E33.76173
G1 X82.908 Y114.278 E33.80506
G1 X82.511 Y114.093 E33.84645
G1 X82.137 Y113.843 E33.88896
G1 X81.801 Y113.536 E33.93197
G1 X81.523 Y113.192 E33.97376
G1 X81.295 Y112.801 E34.01654
G1 X81.13 Y112.386 E34.05874
G1 X81.028 Y111.942 E34.10179
G1 X80.994 Y111.5 E34.14368
G1 X81.028 Y111.058 E34.18558
G1 X81.13 Y110.614 E34.22863
G1 X81.295 Y110.199 E34.27083
G1 X81.523 Y109.808 E34.3136
G1 X81.801 Y109.464 E34.3554
G1 X82.137 Y109.157 E34.39841
G1 X82.511 Y108.907 E34.44092
G1 X82.908 Y108.722 E34.48231
G1 X83.348 Y108.593 E34.52564
G1 X83.789 Y108.531 E34.56773
G1 X84.237 Y108.539 E34.61007
G1 X84.68 Y108.613 E34.65251
G1 X85.106 Y108.753 E34.69489
G1 X85.507 Y108.956 E34.73736
G1 X86.303 Y109.524 E34.82977
G1 X86.501 Y109.665 E34.85274
G1 X86.571 Y109.432 E34.86639
G1 X86.966 Y108.122 E34.99569
G1 X87.29 Y107.302 E35.07901
G1 X87.679 Y106.521 E35.16146
G1 X88.115 Y105.799 E35.24117
G1 X88.634 Y105.087 E35.32443
G1 X89.206 Y104.426 E35.40703
G1 X89.818 Y103.829 E35.48783
G1 X90.49 Y103.274 E35.57019
G1 X91.194 Y102.788 E35.65103
G1 X91.957 Y102.348 E35.73426
G1 X92.648 Y102.025 E35.80634
G1 X138.523 Y102.025 E40.14153
G1 X139.022 Y102.061 E40.18881
G1 X139.51 Y102.167 E40.236
G1 X139.977 Y102.341 E40.2831
G1 X140.406 Y102.576 E40.32932
G1 X140.808 Y102.876 E40.37672
G1 X141.156 Y103.224 E40.42323
G1 X141.452 Y103.62 E40.46995
G1 X141.691 Y104.058 E40.5171
G1 X141.865 Y104.524 E40.56411
G1 X141.971 Y105.01 E40.61112
G1 X142.007 Y105.509 E40.6584
G1 X142.007 Y117.491 E41.79069
G1 X141.971 Y117.99 E41.83797
G1 X141.865 Y118.476 E41.88498
G1 X141.691 Y118.942 E41.93199
G1 X141.452 Y119.38 E41.97914
G1 X141.156 Y119.776 E42.02586
G1 X140.808 Y120.124 E42.07237
G1 X140.406 Y120.424 E42.11977
G1 X139.977 Y120.659 E42.16599
G1 X139.51 Y120.833 E42.21309
G1 X139.022 Y120.939 E42.26028
G1 X138.523 Y120.975 E42.30756
G1 X92.648 Y120.975 E46.64274
G1 X91.953 Y120.65 E46.71525
G1 X91.194 Y120.212 E46.79806
G1 X90.49 Y119.726 E46.8789
G1 X89.816 Y119.169 E46.96153
G1 X89.204 Y118.571 E47.04239
G1 X88.633 Y117.911 E47.12486
G1 X88.115 Y117.201 E47.20791
G1 X87.677 Y116.476 E47.28796
G1 X87.288 Y115.694 E47.3705
G1 X86.966 Y114.878 E47.45339
G1 X86.571 Y113.568 E47.5827
G1 X86.501 Y113.335 E47.59634
G0 F4500 X86.321 Y113.863
;TYPE:WALL-OUTER
G1 F1800 X86.123 Y114.004 E47.61931
G1 X85.678 Y114.322 E47.671
G1 X85.229 Y114.549 E47.71854
G1 X84.758 Y114.704 E47.7654
G1 X84.27 Y114.786 E47.81216
G1 X83.769 Y114.794 E47.85952
G1 X83.278 Y114.726 E47.90636
G1 X82.799 Y114.585 E47.95354
G1 X82.347 Y114.374 E48.00068
G1 X81.937 Y114.1 E48.04728
G1 X81.563 Y113.759 E48.09511
G1 X81.255 Y113.378 E48.14141
G1 X81.002 Y112.943 E48.18896
G1 X80.818 Y112.481 E48.23596
G1 X80.706 Y111.993 E48.28327
G1 X80.668 Y111.5 E48.33
G1 X80.706 Y111.007 E48.37673
G1 X80.818 Y110.519 E48.42404
G1 X81.002 Y110.057 E48.47104
G1 X81.255 Y109.622 E48.51859
G1 X81.563 Y109.241 E48.56489
G1 X81.937 Y108.9 E48.61272
G1 X82.347 Y108.626 E48.65932
G1 X82.799 Y108.415 E48.70646
G1 X83.278 Y108.274 E48.75364
G1 X83.769 Y108.206 E48.80048
G1 X84.27 Y108.214 E48.84783
G1 X84.758 Y108.296 E48.8946
G1 X85.229 Y108.451 E48.94145
G1 X85.678 Y108.678 E48.989
G1 X86.123 Y108.996 E49.04069
G1 X86.321 Y109.137 E49.06366
G1 X86.391 Y108.904 E49.0773
G1 X86.659 Y108.014 E49.16514
G1 X86.994 Y107.168 E49.25113
G1 X87.392 Y106.367 E49.33565
G1 X87.846 Y105.617 E49.4185
G1 X88.382 Y104.881 E49.50454
G1 X88.96 Y104.213 E49.58802
G1 X89.607 Y103.581 E49.67349
G1 X90.289 Y103.018 E49.75706
G1 X91.024 Y102.51 E49.84149
G1 X91.798 Y102.064 E49.92591
G1 X92.576 Y101.7 E50.00708
G1 X138.532 Y101.7 E54.34992
G1 X139.073 Y101.739 E54.40118
G1 X139.601 Y101.854 E54.45224
G1 X140.11 Y102.043 E54.50355
G1 X140.583 Y102.302 E54.55451
G1 X141.023 Y102.631 E54.60643
G1 X141.401 Y103.009 E54.65695
G1 X141.726 Y103.443 E54.70819
G1 X141.99 Y103.927 E54.76029
G1 X142.178 Y104.431 E54.81112
G1 X142.293 Y104.959 E54.86219
G1 X142.332 Y105.5 E54.91344
G1 X142.332 Y117.5 E56.04744
G1 X142.293 Y118.041 E56.0987
G1 X142.178 Y118.569 E56.14977
G1 X141.99 Y119.073 E56.2006
G1 X141.726 Y119.557 E56.2527
G1 X141.401 Y119.991 E56.30394
G1 X141.023 Y120.369 E56.35446
G1 X140.583 Y120.698 E56.40637
G1 X140.11 Y120.957 E56.45733
G1 X139.601 Y121.146 E56.50864
G1 X139.073 Y121.261 E56.55971
G1 X138.532 Y121.3 E56.61097
G1 X92.576 Y121.3 E60.95381
G1 X91.798 Y120.936 E61.03498
G1 X91.024 Y120.49 E61.1194
G1 X90.289 Y119.982 E61.20383
G1 X89.605 Y119.417 E61.28767
G1 X88.96 Y118.787 E61.37287
G1 X88.381 Y118.117 E61.45655
G1 X87.846 Y117.383 E61.54239
G1 X87.39 Y116.629 E61.62566
G1 X86.992 Y115.828 E61.71018
G1 X86.659 Y114.986 E61.79574
G1 X86.391 Y114.096 E61.88358
G1 X86.321 Y113.863 E61.89723
G0 F4500 X86.159 Y113.979
G0 X85.912 Y113.632
G0 X83.866 Y113.813
G0 X82.905 Y113.557
G0 X82.137 Y112.918
G0 X81.711 Y112.018
G0 X81.661 Y110.945
G0 X82.062 Y111.082
G1 F1800 X82.019 Y111.519 E61.93872
G1 X82.068 Y111.937 E61.9785
G1 X82.207 Y112.335 E62.01833
G1 X82.427 Y112.694 E62.05812
G1 X82.72 Y112.998 E62.09802
G1 X83.073 Y113.231 E62.13799
G1 X83.465 Y113.382 E62.17769
G1 X83.882 Y113.447 E62.21757
G1 X84.302 Y113.421 E62.25734
G1 X84.708 Y113.304 E62.29727
G1 X85.078 Y113.102 E62.3371
G1 X85.396 Y112.827 E62.37683
G1 X85.648 Y112.489 E62.41667
G1 X85.821 Y112.105 E62.45647
G1 X85.908 Y111.692 E62.49636
G1 X85.905 Y111.271 E62.53614
G1 X85.81 Y110.86 E62.57601
G1 X85.629 Y110.48 E62.61578
G1 X85.371 Y110.146 E62.65567
G1 X85.046 Y109.876 E62.6956
G1 X84.673 Y109.682 E62.73533
G1 X84.266 Y109.573 E62.77514
G1 X83.844 Y109.554 E62.81506
G1 X83.428 Y109.627 E62.85498
G1 X83.039 Y109.786 E62.89469
G1 X82.692 Y110.026 E62.93456
G1 X82.405 Y110.335 E62.97441
G1 X82.192 Y110.698 E63.01418
G1 X82.062 Y111.082 E63.0525
G0 F4500 X82.043 Y111.281
G0 X81.364 Y111.12
;TYPE:SKIN
G1 F1800 X81.457 Y110.713 E63.09195
G1 X81.602 Y110.348 E63.12906
G1 X81.805 Y110 E63.16713
G1 X82.049 Y109.697 E63.2039
G1 X82.349 Y109.424 E63.24223
G1 X82.67 Y109.209 E63.27874
G1 X83.035 Y109.039 E63.31679
G1 X83.423 Y108.925 E63.35501
G1 X83.804 Y108.871 E63.39137
G1 X84.202 Y108.879 E63.42899
G1 X84.6 Y108.945 E63.46711
G1 X84.978 Y109.069 E63.50471
G1 X85.331 Y109.248 E63.54211
G1 X86.69 Y110.217 E63.69984
G1 X87.29 Y108.226 E63.89635
G1 X87.595 Y107.454 E63.97479
G1 X87.984 Y106.673 E64.05724
G1 X88.402 Y105.98 E64.13372
G1 X88.891 Y105.31 E64.2121
G1 X89.463 Y104.649 E64.29471
G1 X90.044 Y104.083 E64.37136
G1 X90.69 Y103.549 E64.45056
G1 X91.375 Y103.076 E64.52923
G1 X92.114 Y102.65 E64.60984
G1 X92.724 Y102.365 E64.67346
G1 X138.498 Y102.365 E68.99911
G1 X138.982 Y102.4 E69.04496
G1 X139.409 Y102.492 E69.08624
G1 X139.84 Y102.654 E69.12975
G1 X140.22 Y102.862 E69.17069
G1 X140.58 Y103.13 E69.2131
G1 X140.902 Y103.452 E69.25613
G1 X141.163 Y103.801 E69.29732
G1 X141.381 Y104.2 E69.34028
G1 X141.54 Y104.626 E69.38325
G1 X141.632 Y105.05 E69.42425
G1 X141.667 Y105.534 E69.47011
G1 X141.667 Y117.466 E70.59769
G1 X141.632 Y117.95 E70.64354
G1 X141.54 Y118.374 E70.68454
G1 X141.381 Y118.8 E70.72751
G1 X141.163 Y119.199 E70.77048
G1 X140.902 Y119.548 E70.81166
G1 X140.58 Y119.87 E70.8547
G1 X140.22 Y120.138 E70.89711
G1 X139.84 Y120.346 E70.93805
G1 X139.409 Y120.508 E70.98156
G1 X138.982 Y120.6 E71.02283
G1 X138.498 Y120.635 E71.06869
G1 X92.724 Y120.635 E75.39433
G1 X92.11 Y120.348 E75.45838
G1 X91.374 Y119.924 E75.53865
G1 X90.69 Y119.451 E75.61724
G1 X90.042 Y118.915 E75.69671
G1 X89.45 Y118.337 E75.7749
G1 X88.896 Y117.696 E75.85496
G1 X88.4 Y117.016 E75.9345
G1 X87.98 Y116.321 E76.01124
G1 X87.599 Y115.555 E76.09208
G1 X87.286 Y114.761 E76.17274
G1 X86.69 Y112.783 E76.36796
G1 X85.331 Y113.752 E76.52569
G1 X84.978 Y113.931 E76.56309
G1 X84.6 Y114.055 E76.60068
G1 X84.202 Y114.121 E76.63881
G1 X83.804 Y114.129 E76.67643
G1 X83.423 Y114.075 E76.71279
G1 X83.035 Y113.961 E76.75101
G1 X82.67 Y113.791 E76.78906
G1 X82.349 Y113.576 E76.82557
G1 X82.049 Y113.303 E76.8639
G1 X81.805 Y113 E76.90066
G1 X81.602 Y112.652 E76.93873
G1 X81.457 Y112.287 E76.97585
G1 X81.364 Y111.88 E77.0153
G1 X81.334 Y111.5 E77.05132
G1 X81.364 Y111.12 E77.08734
G0 F4500 X81.408 Y110.941
G1 F1800 X81.35 Y111.525 E77.1428
